report_00007_2020-12-11T15:55:29.892Z/cumulative-layout-shift/comparison/sorted/4_vs_5.svg

<svg width="640" height="500" xmlns="http://www.w3.org/2000/svg" xmlns:xlink="http://www.w3.org/1999/xlink"><path fill="#fff" d="M0 0h640v500H0z"/><defs><path id="d" stroke-width=".222" stroke="currentColor" d="M-1-1h2v2h-2z"/><path id="b" stroke-width=".222" stroke="currentColor" d="M0-1.33l-1.33 2h2.66z"/><path id="f" stroke-width=".222" stroke="currentColor" d="M0 1.33L1.265.411.782-1.067l-1.564-.009-.483 1.487z"/><use xlink:href="#b" id="c" stroke="currentColor" transform="rotate(180)"/><use xlink:href="#d" id="e" stroke="currentColor" transform="rotate(45)"/><circle id="a" stroke-width=".222" stroke="currentColor" cx="0" cy="0" r="1"/></defs><g fill="none" color="#000" stroke="currentColor"><path stroke="#000" d="M53.9 369.7h9m552.1 0h-9"/><text transform="translate(45.6 373.6)" stroke="none" fill="#000" font-family="Arial" font-size="12" text-anchor="end"><tspan>0.2</tspan></text></g><g fill="none" color="#000" stroke="currentColor"><path stroke="#000" d="M53.9 295.7h9m552.1 0h-9"/><text transform="translate(45.6 299.6)" stroke="none" fill="#000" font-family="Arial" font-size="12" text-anchor="end"><tspan>0.4</tspan></text></g><g fill="none" color="#000" stroke="currentColor"><path stroke="#000" d="M53.9 221.7h9m552.1 0h-9"/><text transform="translate(45.6 225.6)" stroke="none" fill="#000" font-family="Arial" font-size="12" text-anchor="end"><tspan>0.6</tspan></text></g><g fill="none" color="#000" stroke="currentColor"><path stroke="#000" d="M53.9 147.7h9m552.1 0h-9"/><text transform="translate(45.6 151.6)" stroke="none" fill="#000" font-family="Arial" font-size="12" text-anchor="end"><tspan>0.8</tspan></text></g><g fill="none" color="#000" stroke="currentColor"><path stroke="#000" d="M53.9 73.8h9m552.1 0h-9"/><text transform="translate(45.6 77.7)" stroke="none" fill="#000" font-family="Arial" font-size="12" text-anchor="end"><tspan>1</tspan></text></g><g fill="none" color="#000" stroke="currentColor"><path stroke="#000" d="M53.9 428v-9m0-400.9v9"/><text transform="translate(53.9 449.9)" stroke="none" fill="#000" font-family="Arial" font-size="12" text-anchor="middle"><tspan>0</tspan></text></g><g fill="none" color="#000" stroke="currentColor"><path stroke="#000" d="M110.6 428v-9m0-400.9v9"/><text transform="translate(110.6 449.9)" stroke="none" fill="#000" font-family="Arial" font-size="12" text-anchor="middle"><tspan>10</tspan></text></g><g fill="none" color="#000" stroke="currentColor"><path stroke="#000" d="M167.3 428v-9m0-400.9v9"/><text transform="translate(167.3 449.9)" stroke="none" fill="#000" font-family="Arial" font-size="12" text-anchor="middle"><tspan>20</tspan></text></g><g fill="none" color="#000" stroke="currentColor"><path stroke="#000" d="M223.9 428v-9m0-400.9v9"/><text transform="translate(223.9 449.9)" stroke="none" fill="#000" font-family="Arial" font-size="12" text-anchor="middle"><tspan>30</tspan></text></g><g fill="none" color="#000" stroke="currentColor"><path stroke="#000" d="M280.6 428v-9m0-400.9v9"/><text transform="translate(280.6 449.9)" stroke="none" fill="#000" font-family="Arial" font-size="12" text-anchor="middle"><tspan>40</tspan></text></g><g fill="none" color="#000" stroke="currentColor"><path stroke="#000" d="M337.3 428v-9m0-400.9v9"/><text transform="translate(337.3 449.9)" stroke="none" fill="#000" font-family="Arial" font-size="12" text-anchor="middle"><tspan>50</tspan></text></g><g fill="none" color="#000" stroke="currentColor"><path stroke="#000" d="M394 428v-9m0-400.9v9"/><text transform="translate(394 449.9)" stroke="none" fill="#000" font-family="Arial" font-size="12" text-anchor="middle"><tspan>60</tspan></text></g><g fill="none" color="#000" stroke="currentColor"><path stroke="#000" d="M450.6 428v-9m0-400.9v9"/><text transform="translate(450.6 449.9)" stroke="none" fill="#000" font-family="Arial" font-size="12" text-anchor="middle"><tspan>70</tspan></text></g><g fill="none" color="#000" stroke="currentColor"><path stroke="#000" d="M507.3 428v-9m0-400.9v9"/><text transform="translate(507.3 449.9)" stroke="none" fill="#000" font-family="Arial" font-size="12" text-anchor="middle"><tspan>80</tspan></text></g><g fill="none" color="#000" stroke="currentColor"><path stroke="#000" d="M564 428v-9m0-400.9v9"/><text transform="translate(564 449.9)" stroke="none" fill="#000" font-family="Arial" font-size="12" text-anchor="middle"><tspan>90</tspan></text></g><path stroke="#000" d="M53.9 18.1V428H615V18.1H53.9z" fill="none" color="#000"/><text transform="translate(275.6 467.9)" stroke="none" fill="#000" font-family="Arial" font-size="12" text-anchor="end" color="#000"><tspan>pages+cached+noadtech</tspan></text><path stroke="#9400D3" d="M283.9 464h42.2M53.9 420.1l5.7-11.2H144.6l5.7-31.5H246.6l5.7-4.2H428l5.6-14.4H496l5.6-5.8 5.7-26.8H592.3l5.7-23h17" fill="none" color="#000"/><text transform="translate(275.6 485.9)" stroke="none" fill="#000" font-family="Arial" font-size="12" text-anchor="end" color="#000"><tspan>pages+cached+noexternal</tspan></text><path stroke="#009E73" d="M283.9 482h42.2M53.9 408.9H99.2l5.7-31.5h34l5.7-4.2H291.9l5.7-7H416.6l5.7-4.2H484.6l5.7-17.6 5.7-18.2h28.3l5.7-23H592.3L598 26h17" fill="none" color="#000"/><text transform="translate(525.3 467.9)" stroke="none" fill="#000" font-family="Arial" font-size="12" text-anchor="end" color="#000"><tspan>score p10=0.1</tspan></text><path stroke="#56B4E9" d="M533.6 464h42.2M53.9 406.7H615" fill="none" color="#000"/><g><text transform="translate(525.3 485.9)" stroke="none" fill="#000" font-family="Arial" font-size="12" text-anchor="end" color="#000"><tspan>score median=0.25</tspan></text><path stroke="#E69F00" d="M533.6 482h42.2M53.9 351.2H615" fill="none" color="#000"/></g><g fill="none" color="#000" stroke="currentColor"><path stroke="#000" d="M53.9 18.1V428H615V18.1H53.9z"/></g></svg>

<?xml version="1.0" encoding="utf-8"  standalone="no"?>
<svg 
 width="640" height="500"
 viewBox="0 0 640 500"
 xmlns="http://www.w3.org/2000/svg"
 xmlns:xlink="http://www.w3.org/1999/xlink"
>

<title>Gnuplot</title>
<desc>Produced by GNUPLOT 5.4 patchlevel 0 </desc>

<g id="gnuplot_canvas">

<rect x="0" y="0" width="640" height="500" fill="#ffffff"/>
<defs>

	<circle id='gpDot' r='0.5' stroke-width='0.5' stroke='currentColor'/>
	<path id='gpPt0' stroke-width='0.222' stroke='currentColor' d='M-1,0 h2 M0,-1 v2'/>
	<path id='gpPt1' stroke-width='0.222' stroke='currentColor' d='M-1,-1 L1,1 M1,-1 L-1,1'/>
	<path id='gpPt2' stroke-width='0.222' stroke='currentColor' d='M-1,0 L1,0 M0,-1 L0,1 M-1,-1 L1,1 M-1,1 L1,-1'/>
	<rect id='gpPt3' stroke-width='0.222' stroke='currentColor' x='-1' y='-1' width='2' height='2'/>
	<rect id='gpPt4' stroke-width='0.222' stroke='currentColor' fill='currentColor' x='-1' y='-1' width='2' height='2'/>
	<circle id='gpPt5' stroke-width='0.222' stroke='currentColor' cx='0' cy='0' r='1'/>
	<use xlink:href='#gpPt5' id='gpPt6' fill='currentColor' stroke='none'/>
	<path id='gpPt7' stroke-width='0.222' stroke='currentColor' d='M0,-1.33 L-1.33,0.67 L1.33,0.67 z'/>
	<use xlink:href='#gpPt7' id='gpPt8' fill='currentColor' stroke='none'/>
	<use xlink:href='#gpPt7' id='gpPt9' stroke='currentColor' transform='rotate(180)'/>
	<use xlink:href='#gpPt9' id='gpPt10' fill='currentColor' stroke='none'/>
	<use xlink:href='#gpPt3' id='gpPt11' stroke='currentColor' transform='rotate(45)'/>
	<use xlink:href='#gpPt11' id='gpPt12' fill='currentColor' stroke='none'/>
	<path id='gpPt13' stroke-width='0.222' stroke='currentColor' d='M0,1.330 L1.265,0.411 L0.782,-1.067 L-0.782,-1.076 L-1.265,0.411 z'/>
	<use xlink:href='#gpPt13' id='gpPt14' fill='currentColor' stroke='none'/>
	<filter id='textbox' filterUnits='objectBoundingBox' x='0' y='0' height='1' width='1'>
	  <feFlood flood-color='#FFFFFF' flood-opacity='1' result='bgnd'/>
	  <feComposite in='SourceGraphic' in2='bgnd' operator='atop'/>
	</filter>
	<filter id='greybox' filterUnits='objectBoundingBox' x='0' y='0' height='1' width='1'>
	  <feFlood flood-color='lightgrey' flood-opacity='1' result='grey'/>
	  <feComposite in='SourceGraphic' in2='grey' operator='atop'/>
	</filter>
</defs>
<g fill="none" color="#FFFFFF" stroke="black" stroke-width="1.00" stroke-linecap="butt" stroke-linejoin="miter">
</g>
<g fill="none" color="black" stroke="currentColor" stroke-width="1.00" stroke-linecap="butt" stroke-linejoin="miter">
	<path stroke='black'  d='M53.9,369.7 L62.9,369.7 M615.0,369.7 L606.0,369.7  '/>	<g transform="translate(45.6,373.6)" stroke="none" fill="black" font-family="Arial" font-size="12.00"  text-anchor="end">
		<text><tspan font-family="Arial" > 0.2</tspan></text>
	</g>
</g>
<g fill="none" color="black" stroke="currentColor" stroke-width="1.00" stroke-linecap="butt" stroke-linejoin="miter">
	<path stroke='black'  d='M53.9,295.7 L62.9,295.7 M615.0,295.7 L606.0,295.7  '/>	<g transform="translate(45.6,299.6)" stroke="none" fill="black" font-family="Arial" font-size="12.00"  text-anchor="end">
		<text><tspan font-family="Arial" > 0.4</tspan></text>
	</g>
</g>
<g fill="none" color="black" stroke="currentColor" stroke-width="1.00" stroke-linecap="butt" stroke-linejoin="miter">
	<path stroke='black'  d='M53.9,221.7 L62.9,221.7 M615.0,221.7 L606.0,221.7  '/>	<g transform="translate(45.6,225.6)" stroke="none" fill="black" font-family="Arial" font-size="12.00"  text-anchor="end">
		<text><tspan font-family="Arial" > 0.6</tspan></text>
	</g>
</g>
<g fill="none" color="black" stroke="currentColor" stroke-width="1.00" stroke-linecap="butt" stroke-linejoin="miter">
	<path stroke='black'  d='M53.9,147.7 L62.9,147.7 M615.0,147.7 L606.0,147.7  '/>	<g transform="translate(45.6,151.6)" stroke="none" fill="black" font-family="Arial" font-size="12.00"  text-anchor="end">
		<text><tspan font-family="Arial" > 0.8</tspan></text>
	</g>
</g>
<g fill="none" color="black" stroke="currentColor" stroke-width="1.00" stroke-linecap="butt" stroke-linejoin="miter">
	<path stroke='black'  d='M53.9,73.8 L62.9,73.8 M615.0,73.8 L606.0,73.8  '/>	<g transform="translate(45.6,77.7)" stroke="none" fill="black" font-family="Arial" font-size="12.00"  text-anchor="end">
		<text><tspan font-family="Arial" > 1</tspan></text>
	</g>
</g>
<g fill="none" color="black" stroke="currentColor" stroke-width="1.00" stroke-linecap="butt" stroke-linejoin="miter">
	<path stroke='black'  d='M53.9,428.0 L53.9,419.0 M53.9,18.1 L53.9,27.1  '/>	<g transform="translate(53.9,449.9)" stroke="none" fill="black" font-family="Arial" font-size="12.00"  text-anchor="middle">
		<text><tspan font-family="Arial" > 0</tspan></text>
	</g>
</g>
<g fill="none" color="black" stroke="currentColor" stroke-width="1.00" stroke-linecap="butt" stroke-linejoin="miter">
	<path stroke='black'  d='M110.6,428.0 L110.6,419.0 M110.6,18.1 L110.6,27.1  '/>	<g transform="translate(110.6,449.9)" stroke="none" fill="black" font-family="Arial" font-size="12.00"  text-anchor="middle">
		<text><tspan font-family="Arial" > 10</tspan></text>
	</g>
</g>
<g fill="none" color="black" stroke="currentColor" stroke-width="1.00" stroke-linecap="butt" stroke-linejoin="miter">
	<path stroke='black'  d='M167.3,428.0 L167.3,419.0 M167.3,18.1 L167.3,27.1  '/>	<g transform="translate(167.3,449.9)" stroke="none" fill="black" font-family="Arial" font-size="12.00"  text-anchor="middle">
		<text><tspan font-family="Arial" > 20</tspan></text>
	</g>
</g>
<g fill="none" color="black" stroke="currentColor" stroke-width="1.00" stroke-linecap="butt" stroke-linejoin="miter">
	<path stroke='black'  d='M223.9,428.0 L223.9,419.0 M223.9,18.1 L223.9,27.1  '/>	<g transform="translate(223.9,449.9)" stroke="none" fill="black" font-family="Arial" font-size="12.00"  text-anchor="middle">
		<text><tspan font-family="Arial" > 30</tspan></text>
	</g>
</g>
<g fill="none" color="black" stroke="currentColor" stroke-width="1.00" stroke-linecap="butt" stroke-linejoin="miter">
	<path stroke='black'  d='M280.6,428.0 L280.6,419.0 M280.6,18.1 L280.6,27.1  '/>	<g transform="translate(280.6,449.9)" stroke="none" fill="black" font-family="Arial" font-size="12.00"  text-anchor="middle">
		<text><tspan font-family="Arial" > 40</tspan></text>
	</g>
</g>
<g fill="none" color="black" stroke="currentColor" stroke-width="1.00" stroke-linecap="butt" stroke-linejoin="miter">
	<path stroke='black'  d='M337.3,428.0 L337.3,419.0 M337.3,18.1 L337.3,27.1  '/>	<g transform="translate(337.3,449.9)" stroke="none" fill="black" font-family="Arial" font-size="12.00"  text-anchor="middle">
		<text><tspan font-family="Arial" > 50</tspan></text>
	</g>
</g>
<g fill="none" color="black" stroke="currentColor" stroke-width="1.00" stroke-linecap="butt" stroke-linejoin="miter">
	<path stroke='black'  d='M394.0,428.0 L394.0,419.0 M394.0,18.1 L394.0,27.1  '/>	<g transform="translate(394.0,449.9)" stroke="none" fill="black" font-family="Arial" font-size="12.00"  text-anchor="middle">
		<text><tspan font-family="Arial" > 60</tspan></text>
	</g>
</g>
<g fill="none" color="black" stroke="currentColor" stroke-width="1.00" stroke-linecap="butt" stroke-linejoin="miter">
	<path stroke='black'  d='M450.6,428.0 L450.6,419.0 M450.6,18.1 L450.6,27.1  '/>	<g transform="translate(450.6,449.9)" stroke="none" fill="black" font-family="Arial" font-size="12.00"  text-anchor="middle">
		<text><tspan font-family="Arial" > 70</tspan></text>
	</g>
</g>
<g fill="none" color="black" stroke="currentColor" stroke-width="1.00" stroke-linecap="butt" stroke-linejoin="miter">
	<path stroke='black'  d='M507.3,428.0 L507.3,419.0 M507.3,18.1 L507.3,27.1  '/>	<g transform="translate(507.3,449.9)" stroke="none" fill="black" font-family="Arial" font-size="12.00"  text-anchor="middle">
		<text><tspan font-family="Arial" > 80</tspan></text>
	</g>
</g>
<g fill="none" color="black" stroke="currentColor" stroke-width="1.00" stroke-linecap="butt" stroke-linejoin="miter">
	<path stroke='black'  d='M564.0,428.0 L564.0,419.0 M564.0,18.1 L564.0,27.1  '/>	<g transform="translate(564.0,449.9)" stroke="none" fill="black" font-family="Arial" font-size="12.00"  text-anchor="middle">
		<text><tspan font-family="Arial" > 90</tspan></text>
	</g>
</g>
<g fill="none" color="black" stroke="currentColor" stroke-width="1.00" stroke-linecap="butt" stroke-linejoin="miter">
</g>
<g fill="none" color="black" stroke="currentColor" stroke-width="1.00" stroke-linecap="butt" stroke-linejoin="miter">
	<path stroke='black'  d='M53.9,18.1 L53.9,428.0 L615.0,428.0 L615.0,18.1 L53.9,18.1 Z  '/></g>
<g fill="none" color="black" stroke="currentColor" stroke-width="1.00" stroke-linecap="butt" stroke-linejoin="miter">
</g>
	<g id="gnuplot_plot_1" ><title>pages+cached+noadtech</title>
<g fill="none" color="black" stroke="currentColor" stroke-width="1.00" stroke-linecap="butt" stroke-linejoin="miter">
	<g transform="translate(275.6,467.9)" stroke="none" fill="black" font-family="Arial" font-size="12.00"  text-anchor="end">
		<text><tspan font-family="Arial" >pages+cached+noadtech</tspan></text>
	</g>
</g>
<g fill="none" color="black" stroke="currentColor" stroke-width="1.00" stroke-linecap="butt" stroke-linejoin="miter">
	<path stroke='rgb(148,   0, 211)'  d='M283.9,464.0 L326.1,464.0 M53.9,420.1 L59.6,408.9 L65.2,408.9 L70.9,408.9 L76.6,408.9 L82.2,408.9
		L87.9,408.9 L93.6,408.9 L99.2,408.9 L104.9,408.9 L110.6,408.9 L116.2,408.9 L121.9,408.9 L127.6,408.9
		L133.2,408.9 L138.9,408.9 L144.6,408.9 L150.3,377.4 L155.9,377.4 L161.6,377.4 L167.3,377.4 L172.9,377.4
		L178.6,377.4 L184.3,377.4 L189.9,377.4 L195.6,377.4 L201.3,377.4 L206.9,377.4 L212.6,377.4 L218.3,377.4
		L223.9,377.4 L229.6,377.4 L235.3,377.4 L240.9,377.4 L246.6,377.4 L252.3,373.2 L257.9,373.2 L263.6,373.2
		L269.3,373.2 L274.9,373.2 L280.6,373.2 L286.3,373.2 L291.9,373.2 L297.6,373.2 L303.3,373.2 L308.9,373.2
		L314.6,373.2 L320.3,373.2 L325.9,373.2 L331.6,373.2 L337.3,373.2 L343.0,373.2 L348.6,373.2 L354.3,373.2
		L360.0,373.2 L365.6,373.2 L371.3,373.2 L377.0,373.2 L382.6,373.2 L388.3,373.2 L394.0,373.2 L399.6,373.2
		L405.3,373.2 L411.0,373.2 L416.6,373.2 L422.3,373.2 L428.0,373.2 L433.6,358.8 L439.3,358.8 L445.0,358.8
		L450.6,358.8 L456.3,358.8 L462.0,358.8 L467.6,358.8 L473.3,358.8 L479.0,358.8 L484.6,358.8 L490.3,358.8
		L496.0,358.8 L501.6,353.0 L507.3,326.2 L513.0,326.2 L518.6,326.2 L524.3,326.2 L530.0,326.2 L535.7,326.2
		L541.3,326.2 L547.0,326.2 L552.7,326.2 L558.3,326.2 L564.0,326.2 L569.7,326.2 L575.3,326.2 L581.0,326.2
		L586.7,326.2 L592.3,326.2 L598.0,303.2 L603.7,303.2 L609.3,303.2 L615.0,303.2  '/></g>
	</g>
	<g id="gnuplot_plot_2" ><title>pages+cached+noexternal</title>
<g fill="none" color="black" stroke="currentColor" stroke-width="1.00" stroke-linecap="butt" stroke-linejoin="miter">
	<g transform="translate(275.6,485.9)" stroke="none" fill="black" font-family="Arial" font-size="12.00"  text-anchor="end">
		<text><tspan font-family="Arial" >pages+cached+noexternal</tspan></text>
	</g>
</g>
<g fill="none" color="black" stroke="currentColor" stroke-width="1.00" stroke-linecap="butt" stroke-linejoin="miter">
	<path stroke='rgb(  0, 158, 115)'  d='M283.9,482.0 L326.1,482.0 M53.9,408.9 L59.6,408.9 L65.2,408.9 L70.9,408.9 L76.6,408.9 L82.2,408.9
		L87.9,408.9 L93.6,408.9 L99.2,408.9 L104.9,377.4 L110.6,377.4 L116.2,377.4 L121.9,377.4 L127.6,377.4
		L133.2,377.4 L138.9,377.4 L144.6,373.2 L150.3,373.2 L155.9,373.2 L161.6,373.2 L167.3,373.2 L172.9,373.2
		L178.6,373.2 L184.3,373.2 L189.9,373.2 L195.6,373.2 L201.3,373.2 L206.9,373.2 L212.6,373.2 L218.3,373.2
		L223.9,373.2 L229.6,373.2 L235.3,373.2 L240.9,373.2 L246.6,373.2 L252.3,373.2 L257.9,373.2 L263.6,373.2
		L269.3,373.2 L274.9,373.2 L280.6,373.2 L286.3,373.2 L291.9,373.2 L297.6,366.2 L303.3,366.2 L308.9,366.2
		L314.6,366.2 L320.3,366.2 L325.9,366.2 L331.6,366.2 L337.3,366.2 L343.0,366.2 L348.6,366.2 L354.3,366.2
		L360.0,366.2 L365.6,366.2 L371.3,366.2 L377.0,366.2 L382.6,366.2 L388.3,366.2 L394.0,366.2 L399.6,366.2
		L405.3,366.2 L411.0,366.2 L416.6,366.2 L422.3,362.0 L428.0,362.0 L433.6,362.0 L439.3,362.0 L445.0,362.0
		L450.6,362.0 L456.3,362.0 L462.0,362.0 L467.6,362.0 L473.3,362.0 L479.0,362.0 L484.6,362.0 L490.3,344.4
		L496.0,326.2 L501.6,326.2 L507.3,326.2 L513.0,326.2 L518.6,326.2 L524.3,326.2 L530.0,303.2 L535.7,303.2
		L541.3,303.2 L547.0,303.2 L552.7,303.2 L558.3,303.2 L564.0,303.2 L569.7,303.2 L575.3,303.2 L581.0,303.2
		L586.7,303.2 L592.3,303.2 L598.0,26.0 L603.7,26.0 L609.3,26.0 L615.0,26.0  '/></g>
	</g>
	<g id="gnuplot_plot_3" ><title>score p10=0.1</title>
<g fill="none" color="black" stroke="currentColor" stroke-width="1.00" stroke-linecap="butt" stroke-linejoin="miter">
	<g transform="translate(525.3,467.9)" stroke="none" fill="black" font-family="Arial" font-size="12.00"  text-anchor="end">
		<text><tspan font-family="Arial" >score p10=0.1</tspan></text>
	</g>
</g>
<g fill="none" color="black" stroke="currentColor" stroke-width="1.00" stroke-linecap="butt" stroke-linejoin="miter">
	<path stroke='rgb( 86, 180, 233)'  d='M533.6,464.0 L575.8,464.0 M53.9,406.7 L59.6,406.7 L65.2,406.7 L70.9,406.7 L76.6,406.7 L82.2,406.7
		L87.9,406.7 L93.6,406.7 L99.2,406.7 L104.9,406.7 L110.6,406.7 L116.2,406.7 L121.9,406.7 L127.6,406.7
		L133.2,406.7 L138.9,406.7 L144.6,406.7 L150.3,406.7 L155.9,406.7 L161.6,406.7 L167.3,406.7 L172.9,406.7
		L178.6,406.7 L184.3,406.7 L189.9,406.7 L195.6,406.7 L201.3,406.7 L206.9,406.7 L212.6,406.7 L218.3,406.7
		L223.9,406.7 L229.6,406.7 L235.3,406.7 L240.9,406.7 L246.6,406.7 L252.3,406.7 L257.9,406.7 L263.6,406.7
		L269.3,406.7 L274.9,406.7 L280.6,406.7 L286.3,406.7 L291.9,406.7 L297.6,406.7 L303.3,406.7 L308.9,406.7
		L314.6,406.7 L320.3,406.7 L325.9,406.7 L331.6,406.7 L337.3,406.7 L343.0,406.7 L348.6,406.7 L354.3,406.7
		L360.0,406.7 L365.6,406.7 L371.3,406.7 L377.0,406.7 L382.6,406.7 L388.3,406.7 L394.0,406.7 L399.6,406.7
		L405.3,406.7 L411.0,406.7 L416.6,406.7 L422.3,406.7 L428.0,406.7 L433.6,406.7 L439.3,406.7 L445.0,406.7
		L450.6,406.7 L456.3,406.7 L462.0,406.7 L467.6,406.7 L473.3,406.7 L479.0,406.7 L484.6,406.7 L490.3,406.7
		L496.0,406.7 L501.6,406.7 L507.3,406.7 L513.0,406.7 L518.6,406.7 L524.3,406.7 L530.0,406.7 L535.7,406.7
		L541.3,406.7 L547.0,406.7 L552.7,406.7 L558.3,406.7 L564.0,406.7 L569.7,406.7 L575.3,406.7 L581.0,406.7
		L586.7,406.7 L592.3,406.7 L598.0,406.7 L603.7,406.7 L609.3,406.7 L615.0,406.7  '/></g>
	</g>
	<g id="gnuplot_plot_4" ><title>score median=0.25</title>
<g fill="none" color="black" stroke="currentColor" stroke-width="1.00" stroke-linecap="butt" stroke-linejoin="miter">
	<g transform="translate(525.3,485.9)" stroke="none" fill="black" font-family="Arial" font-size="12.00"  text-anchor="end">
		<text><tspan font-family="Arial" >score median=0.25</tspan></text>
	</g>
</g>
<g fill="none" color="black" stroke="currentColor" stroke-width="1.00" stroke-linecap="butt" stroke-linejoin="miter">
	<path stroke='rgb(230, 159,   0)'  d='M533.6,482.0 L575.8,482.0 M53.9,351.2 L59.6,351.2 L65.2,351.2 L70.9,351.2 L76.6,351.2 L82.2,351.2
		L87.9,351.2 L93.6,351.2 L99.2,351.2 L104.9,351.2 L110.6,351.2 L116.2,351.2 L121.9,351.2 L127.6,351.2
		L133.2,351.2 L138.9,351.2 L144.6,351.2 L150.3,351.2 L155.9,351.2 L161.6,351.2 L167.3,351.2 L172.9,351.2
		L178.6,351.2 L184.3,351.2 L189.9,351.2 L195.6,351.2 L201.3,351.2 L206.9,351.2 L212.6,351.2 L218.3,351.2
		L223.9,351.2 L229.6,351.2 L235.3,351.2 L240.9,351.2 L246.6,351.2 L252.3,351.2 L257.9,351.2 L263.6,351.2
		L269.3,351.2 L274.9,351.2 L280.6,351.2 L286.3,351.2 L291.9,351.2 L297.6,351.2 L303.3,351.2 L308.9,351.2
		L314.6,351.2 L320.3,351.2 L325.9,351.2 L331.6,351.2 L337.3,351.2 L343.0,351.2 L348.6,351.2 L354.3,351.2
		L360.0,351.2 L365.6,351.2 L371.3,351.2 L377.0,351.2 L382.6,351.2 L388.3,351.2 L394.0,351.2 L399.6,351.2
		L405.3,351.2 L411.0,351.2 L416.6,351.2 L422.3,351.2 L428.0,351.2 L433.6,351.2 L439.3,351.2 L445.0,351.2
		L450.6,351.2 L456.3,351.2 L462.0,351.2 L467.6,351.2 L473.3,351.2 L479.0,351.2 L484.6,351.2 L490.3,351.2
		L496.0,351.2 L501.6,351.2 L507.3,351.2 L513.0,351.2 L518.6,351.2 L524.3,351.2 L530.0,351.2 L535.7,351.2
		L541.3,351.2 L547.0,351.2 L552.7,351.2 L558.3,351.2 L564.0,351.2 L569.7,351.2 L575.3,351.2 L581.0,351.2
		L586.7,351.2 L592.3,351.2 L598.0,351.2 L603.7,351.2 L609.3,351.2 L615.0,351.2  '/></g>
	</g>
<g fill="none" color="#FFFFFF" stroke="rgb(230, 159,   0)" stroke-width="2.00" stroke-linecap="butt" stroke-linejoin="
